X: 1
T: Triangle Hornpipe
P: piffero primo a0808
O: Dave Gregory
%R: hornipe, reel
F: ancients.sudburymuster.org/mus sng/pdf/trianglehpC0.pdf
Z: 2020 John Chambers <jc:trillian.mit.edu>
M: 2/4
L: 1/16
K: G
BA |\
G3A B2d2 | e2g2 dBG2 | c2g2 B2g2 | A2d2 cBAD | G2GF GABd | edeg d2ef |
gfge dgcB | AdBA G2 :: FG | AdcB ADGA | Bgfe d2ef | g2B2 de^cA | d2cd A2GA |
BGdB gfeg | d2de dcBA | Bgag egcB | AdBA G2 :: FG | A2d2 cBAD | BABe d2ef |
g2B2 fed^c | d2e^c d2GA | BGBg egdg | Afef g2fe | dgag egcB | AdBA G2 :|
